(G-CODE GENERATED BY FLATCAM v8.991 - www.flatcam.org - Version Date: 2019/12/27)

(Name: Corte)
(Type: G-code from Geometry)
(Units: IN)

(Created on Thursday, 06 February 2025 at 21:02)

(TOOL DIAMETER: 0.0669 in)
(Feedrate: 5.0 in/min)
(Feedrate_Z: 1.0 in/min)
(Feedrate rapids 59.0551 in/min)

(Z_Cut: -0.077 in)
(DepthPerCut: 0.0385 in <=>2 passes)
(Z_Move: 0.025 in)
(Z Toolchange: 0.5906 in)
(X,Y Toolchange: 0.0000, 0.0000 in)
(Z Start: None in)
(Z End: 2.5 in)
(Steps per circle: 64)
(Preprocessor Geometry: default)

(X range:   -0.7422 ...    0.7500  in)
(Y range:   -1.2688 ...    1.2825  in)

(Spindle Speed: 10000 RPM)
G20
G90
G94




G01 F5.00
G00 Z0.0250

M03 S10000
G00 X-0.7422 Y-0.0466
G01 F1.00
G01 Z-0.0385
G01 F5.00
G01 X-0.7422 Y-1.2353
G01 X-0.7420 Y-1.2386
G01 X-0.7415 Y-1.2418
G01 X-0.7407 Y-1.2450
G01 X-0.7396 Y-1.2481
G01 X-0.7382 Y-1.2511
G01 X-0.7365 Y-1.2539
G01 X-0.7346 Y-1.2565
G01 X-0.7324 Y-1.2590
G01 X-0.7299 Y-1.2612
G01 X-0.7273 Y-1.2631
G01 X-0.7245 Y-1.2648
G01 X-0.7215 Y-1.2662
G01 X-0.7184 Y-1.2673
G01 X-0.7153 Y-1.2681
G01 X-0.7120 Y-1.2686
G01 X-0.7087 Y-1.2688
G01 X0.7166 Y-1.2688
G00 X0.7166 Y-1.2688
G01 F1.00
G01 Z-0.0770
G01 F5.00
G01 X-0.7087 Y-1.2688
G01 X-0.7120 Y-1.2686
G01 X-0.7153 Y-1.2681
G01 X-0.7184 Y-1.2673
G01 X-0.7215 Y-1.2662
G01 X-0.7245 Y-1.2648
G01 X-0.7273 Y-1.2631
G01 X-0.7299 Y-1.2612
G01 X-0.7324 Y-1.2590
G01 X-0.7346 Y-1.2565
G01 X-0.7365 Y-1.2539
G01 X-0.7382 Y-1.2511
G01 X-0.7396 Y-1.2481
G01 X-0.7407 Y-1.2450
G01 X-0.7415 Y-1.2418
G01 X-0.7420 Y-1.2386
G01 X-0.7422 Y-1.2353
G01 X-0.7422 Y-0.0466
G00 Z0.0250
G00 X-0.7422 Y0.0603
G01 F1.00
G01 Z-0.0385
G01 F5.00
G01 X-0.7422 Y1.2491
G01 X-0.7420 Y1.2524
G01 X-0.7415 Y1.2556
G01 X-0.7407 Y1.2588
G01 X-0.7396 Y1.2619
G01 X-0.7382 Y1.2648
G01 X-0.7365 Y1.2677
G01 X-0.7346 Y1.2703
G01 X-0.7324 Y1.2727
G01 X-0.7299 Y1.2749
G01 X-0.7273 Y1.2769
G01 X-0.7245 Y1.2786
G01 X-0.7215 Y1.2800
G01 X-0.7184 Y1.2811
G01 X-0.7153 Y1.2819
G01 X-0.7120 Y1.2824
G01 X-0.7087 Y1.2825
G01 X0.7166 Y1.2825
G01 X0.7199 Y1.2824
G01 X0.7231 Y1.2819
G01 X0.7263 Y1.2811
G01 X0.7294 Y1.2800
G01 X0.7324 Y1.2786
G01 X0.7352 Y1.2769
G01 X0.7378 Y1.2749
G01 X0.7403 Y1.2727
G01 X0.7425 Y1.2703
G01 X0.7444 Y1.2677
G01 X0.7461 Y1.2648
G01 X0.7475 Y1.2619
G01 X0.7486 Y1.2588
G01 X0.7494 Y1.2556
G01 X0.7499 Y1.2524
G01 X0.7500 Y1.2491
G01 X0.7500 Y0.0603
G00 X0.7500 Y0.0603
G01 F1.00
G01 Z-0.0770
G01 F5.00
G01 X0.7500 Y1.2491
G01 X0.7499 Y1.2524
G01 X0.7494 Y1.2556
G01 X0.7486 Y1.2588
G01 X0.7475 Y1.2619
G01 X0.7461 Y1.2648
G01 X0.7444 Y1.2677
G01 X0.7425 Y1.2703
G01 X0.7403 Y1.2727
G01 X0.7378 Y1.2749
G01 X0.7352 Y1.2769
G01 X0.7324 Y1.2786
G01 X0.7294 Y1.2800
G01 X0.7263 Y1.2811
G01 X0.7231 Y1.2819
G01 X0.7199 Y1.2824
G01 X0.7166 Y1.2825
G01 X-0.7087 Y1.2825
G01 X-0.7120 Y1.2824
G01 X-0.7153 Y1.2819
G01 X-0.7184 Y1.2811
G01 X-0.7215 Y1.2800
G01 X-0.7245 Y1.2786
G01 X-0.7273 Y1.2769
G01 X-0.7299 Y1.2749
G01 X-0.7324 Y1.2727
G01 X-0.7346 Y1.2703
G01 X-0.7365 Y1.2677
G01 X-0.7382 Y1.2648
G01 X-0.7396 Y1.2619
G01 X-0.7407 Y1.2588
G01 X-0.7415 Y1.2556
G01 X-0.7420 Y1.2524
G01 X-0.7422 Y1.2491
G01 X-0.7422 Y0.0603
G00 Z0.0250
G00 X0.7500 Y-0.0466
G01 F1.00
G01 Z-0.0385
G01 F5.00
G01 X0.7500 Y-1.2353
G01 X0.7499 Y-1.2386
G01 X0.7494 Y-1.2418
G01 X0.7486 Y-1.2450
G01 X0.7475 Y-1.2481
G01 X0.7461 Y-1.2511
G01 X0.7444 Y-1.2539
G01 X0.7425 Y-1.2565
G01 X0.7403 Y-1.2590
G01 X0.7378 Y-1.2612
G01 X0.7352 Y-1.2631
G01 X0.7324 Y-1.2648
G01 X0.7294 Y-1.2662
G01 X0.7263 Y-1.2673
G01 X0.7231 Y-1.2681
G01 X0.7199 Y-1.2686
G01 X0.7166 Y-1.2688
G00 X0.7166 Y-1.2688
G01 F1.00
G01 Z-0.0770
G01 F5.00
G01 X0.7199 Y-1.2686
G01 X0.7231 Y-1.2681
G01 X0.7263 Y-1.2673
G01 X0.7294 Y-1.2662
G01 X0.7324 Y-1.2648
G01 X0.7352 Y-1.2631
G01 X0.7378 Y-1.2612
G01 X0.7403 Y-1.2590
G01 X0.7425 Y-1.2565
G01 X0.7444 Y-1.2539
G01 X0.7461 Y-1.2511
G01 X0.7475 Y-1.2481
G01 X0.7486 Y-1.2450
G01 X0.7494 Y-1.2418
G01 X0.7499 Y-1.2386
G01 X0.7500 Y-1.2353
G01 X0.7500 Y-0.0466
G00 Z0.0250
M05
G00 Z0.0250
G00 Z2.50
G00 X0.0 Y0.0

