(G-CODE GENERATED BY FLATCAM v8.991 - www.flatcam.org - Version Date: 2019/12/27)

(Name: Drill05In)
(Type: G-code from Excellon)
(Units: IN)

(Created on Thursday, 06 February 2025 at 21:03)

(Feedrate: 2.0 in/min)
(Feedrate rapids 59.0551 in/min)

(Z_Cut: -0.077 in)
(Z_Move: 0.059 in)
(Z Toolchange: 0.5906 in)
(X,Y Toolchange: 0.0000, 0.0000 in)
(Z Start: None in)
(Z End: 2.5 in)
(Steps per circle: 64)
(Preprocessor Excellon: default)

(X range:   -0.5116 ...    0.4955  in)
(Y range:   -1.0691 ...    1.0475  in)

(Spindle Speed: None RPM)
G20
G90
G94




G01 F2.00
G00 Z0.0590

M03
G00 X0.3268 Y1.0010
G01 Z-0.0770
G01 Z0
G00 Z0.0590
G00 X0.3268 Y0.7844
G01 Z-0.0770
G01 Z0
G00 Z0.0590
G00 X0.4567 Y0.9065
G01 Z-0.0770
G01 Z0
G00 Z0.0590
M05
G00 Z2.50
G00 X0.0 Y0.0

