(G-CODE GENERATED BY FLATCAM v8.991 - www.flatcam.org - Version Date: 2019/12/27)

(Name: Drill03In)
(Type: G-code from Excellon)
(Units: IN)

(Created on Thursday, 06 February 2025 at 21:03)

(Feedrate: 2.0 in/min)
(Feedrate rapids 59.0551 in/min)

(Z_Cut: -0.077 in)
(Z_Move: 0.059 in)
(Z Toolchange: 0.5906 in)
(X,Y Toolchange: 0.0000, 0.0000 in)
(Z Start: None in)
(Z End: 2.5 in)
(Steps per circle: 64)
(Preprocessor Excellon: default)

(X range:   -0.5116 ...    0.4955  in)
(Y range:   -1.0691 ...    1.0475  in)

(Spindle Speed: None RPM)
G20
G90
G94




G01 F2.00
G00 Z0.0590

M03
G00 X0.1339 Y0.4380
G01 Z-0.0770
G01 Z0
G00 Z0.0590
G00 X-0.3976 Y0.6079
G01 Z-0.0770
G01 Z0
G00 Z0.0590
G00 X-0.3976 Y0.5079
G01 Z-0.0770
G01 Z0
G00 Z0.0590
G00 X-0.3976 Y0.4079
G01 Z-0.0770
G01 Z0
G00 Z0.0590
G00 X-0.3976 Y0.3079
G01 Z-0.0770
G01 Z0
G00 Z0.0590
G00 X-0.3976 Y-0.1559
G01 Z-0.0770
G01 Z0
G00 Z0.0590
G00 X-0.2882 Y-1.0541
G01 Z-0.0770
G01 Z0
G00 Z0.0590
G00 X-0.1882 Y-1.0541
G01 Z-0.0770
G01 Z0
G00 Z0.0590
G00 X-0.0882 Y-1.0541
G01 Z-0.0770
G01 Z0
G00 Z0.0590
G00 X0.0118 Y-1.0541
G01 Z-0.0770
G01 Z0
G00 Z0.0590
G00 X0.1118 Y-1.0541
G01 Z-0.0770
G01 Z0
G00 Z0.0590
G00 X0.2118 Y-1.0541
G01 Z-0.0770
G01 Z0
G00 Z0.0590
G00 X0.4805 Y-0.7992
G01 Z-0.0770
G01 Z0
G00 Z0.0590
G00 X0.3805 Y-0.7992
G01 Z-0.0770
G01 Z0
G00 Z0.0590
G00 X0.2805 Y-0.7992
G01 Z-0.0770
G01 Z0
G00 Z0.0590
G00 X0.1805 Y-0.7992
G01 Z-0.0770
G01 Z0
G00 Z0.0590
G00 X-0.1966 Y-0.8031
G01 Z-0.0770
G01 Z0
G00 Z0.0590
G00 X-0.2966 Y-0.8031
G01 Z-0.0770
G01 Z0
G00 Z0.0590
G00 X-0.3966 Y-0.8031
G01 Z-0.0770
G01 Z0
G00 Z0.0590
G00 X-0.4966 Y-0.8031
G01 Z-0.0770
G01 Z0
G00 Z0.0590
G00 X-0.3976 Y-0.2559
G01 Z-0.0770
G01 Z0
G00 Z0.0590
G00 X-0.3976 Y-0.3559
G01 Z-0.0770
G01 Z0
G00 Z0.0590
G00 X-0.3976 Y-0.4559
G01 Z-0.0770
G01 Z0
G00 Z0.0590
G00 X0.3898 Y-0.3644
G01 Z-0.0770
G01 Z0
G00 Z0.0590
G00 X0.3898 Y-0.2644
G01 Z-0.0770
G01 Z0
G00 Z0.0590
G00 X0.3898 Y-0.1644
G01 Z-0.0770
G01 Z0
G00 Z0.0590
G00 X0.1756 Y0.7254
G01 Z-0.0770
G01 Z0
G00 Z0.0590
G00 X-0.2519 Y1.0325
G01 Z-0.0770
G01 Z0
G00 Z0.0590
G00 X-0.0551 Y1.0325
G01 Z-0.0770
G01 Z0
G00 Z0.0590
G00 X-0.2244 Y0.7254
G01 Z-0.0770
G01 Z0
G00 Z0.0590
G00 X0.3898 Y0.3246
G01 Z-0.0770
G01 Z0
G00 Z0.0590
G00 X0.3898 Y-0.0644
G01 Z-0.0770
G01 Z0
G00 Z0.0590
G00 X0.3898 Y0.4246
G01 Z-0.0770
G01 Z0
G00 Z0.0590
G00 X0.3898 Y0.5246
G01 Z-0.0770
G01 Z0
G00 Z0.0590
G00 X-0.1661 Y0.4380
G01 Z-0.0770
G01 Z0
G00 Z0.0590
G00 X-0.1661 Y0.3380
G01 Z-0.0770
G01 Z0
G00 Z0.0590
G00 X-0.1661 Y0.2380
G01 Z-0.0770
G01 Z0
G00 Z0.0590
G00 X-0.1661 Y0.1380
G01 Z-0.0770
G01 Z0
G00 Z0.0590
G00 X-0.1661 Y0.0380
G01 Z-0.0770
G01 Z0
G00 Z0.0590
G00 X-0.1661 Y-0.0620
G01 Z-0.0770
G01 Z0
G00 Z0.0590
G00 X-0.1661 Y-0.1620
G01 Z-0.0770
G01 Z0
G00 Z0.0590
G00 X-0.1661 Y-0.2620
G01 Z-0.0770
G01 Z0
G00 Z0.0590
G00 X-0.1661 Y-0.3620
G01 Z-0.0770
G01 Z0
G00 Z0.0590
G00 X0.1339 Y-0.3620
G01 Z-0.0770
G01 Z0
G00 Z0.0590
G00 X0.1339 Y-0.2620
G01 Z-0.0770
G01 Z0
G00 Z0.0590
G00 X0.1339 Y-0.1620
G01 Z-0.0770
G01 Z0
G00 Z0.0590
G00 X0.1339 Y-0.0620
G01 Z-0.0770
G01 Z0
G00 Z0.0590
G00 X0.1339 Y0.0380
G01 Z-0.0770
G01 Z0
G00 Z0.0590
G00 X0.1339 Y0.1380
G01 Z-0.0770
G01 Z0
G00 Z0.0590
G00 X0.1339 Y0.2380
G01 Z-0.0770
G01 Z0
G00 Z0.0590
G00 X0.1339 Y0.3380
G01 Z-0.0770
G01 Z0
G00 Z0.0590
M05
G00 Z2.50
G00 X0.0 Y0.0

